public/images/icons/pwa.svg

<svg width="24" height="9" viewBox="0 0 24 9" fill="none" xmlns="http://www.w3.org/2000/svg">
<path d="M15.5016 9L19.1447 0H16.7297L14.2378 5.81578L12.4655 0H10.6088L8.70656 5.81578L7.36453 3.16594L6.15047 6.89062L7.38328 9H9.75984L11.4792 3.78422L13.1198 9H15.5016ZM2.28703 5.91047H3.77063C4.17597 5.91615 4.58015 5.86551 4.97156 5.76L5.355 4.57922L6.4275 1.27969C6.34471 1.14947 6.25059 1.02681 6.14625 0.913125C5.59687 0.304375 4.79172 0 3.73078 0H0V9H2.28703V5.91047ZM4.25109 2.07047C4.46641 2.28672 4.57391 2.57609 4.57359 2.93859C4.57328 3.30109 4.47953 3.59063 4.29234 3.80719C4.08484 4.04531 3.70297 4.16422 3.14672 4.16391H2.28703V1.74609H3.15047C3.66891 1.74609 4.03578 1.85422 4.25109 2.07047ZM17.6648 7.38797L18.3581 5.64187H20.3592L19.4095 2.99297L20.5973 0L24 9H21.4908L20.9095 7.38797H17.6648Z" fill="#0B80C5"/>
</svg>

<svg xmlns="http://www.w3.org/2000/svg" width="24" height="9" fill="none"><path fill="#0B80C5" d="m15.502 9 3.643-9H16.73l-2.492 5.816L12.466 0h-1.857L8.707 5.816l-1.342-2.65L6.15 6.89 7.383 9H9.76l1.72-5.216L13.12 9h2.382ZM2.287 5.91h1.484c.405.006.81-.044 1.2-.15l.384-1.18 1.072-3.3a2.625 2.625 0 0 0-.28-.367C5.596.304 4.791 0 3.73 0H0v9h2.287V5.91Zm1.964-3.84c.215.217.323.506.323.869 0 .362-.094.652-.282.868-.207.238-.589.357-1.145.357h-.86V1.746h.863c.519 0 .886.108 1.101.324Zm13.414 5.318.693-1.746h2.001l-.95-2.649L20.598 0 24 9h-2.51l-.58-1.612h-3.245Z"/></svg>
